lib/assets/buttons/feed_ban.svg

<svg height="24" viewBox="0 0 24 24" width="24" xmlns="http://www.w3.org/2000/svg">
    <path d="m12.1 18.55-.1.1-.11-.1c-4.75-4.31-7.89-7.16-7.89-10.05 0-2 1.5-3.5 3.5-3.5 1.54 0 3.04 1 3.57 2.36h1.86c.53-1.36 2.03-2.36 3.57-2.36 2 0 3.5 1.5 3.5 3.5 0 2.89-3.14 5.74-7.9 10.05m4.4-15.55c-1.74 0-3.41.81-4.5 2.08-1.09-1.27-2.76-2.08-4.5-2.08-3.08 0-5.5 2.41-5.5 5.5 0 3.77 3.4 6.86 8.55 11.53l1.45 1.32 1.45-1.32c5.15-4.67 8.55-7.76 8.55-11.53 0-3.09-2.42-5.5-5.5-5.5z" />
    <path d="m1.6271186 2.5423729 18.5084744 16.4745761" fill="none" stroke="#000"
            stroke-linecap="round" stroke-width="1.5" />
</svg>

<?xml version="1.0" encoding="UTF-8" standalone="no"?>
<svg
   xmlns:dc="http://purl.org/dc/elements/1.1/"
   xmlns:cc="http://creativecommons.org/ns#"
   xmlns:rdf="http://www.w3.org/1999/02/22-rdf-syntax-ns#"
   xmlns:svg="http://www.w3.org/2000/svg"
   xmlns="http://www.w3.org/2000/svg"
   version="1.1"
   width="24"
   height="24"
   viewBox="0 0 24 24"
   id="svg4">
  <metadata
     id="metadata10">
    <rdf:RDF>
      <cc:Work
         rdf:about="">
        <dc:format>image/svg+xml</dc:format>
        <dc:type
           rdf:resource="http://purl.org/dc/dcmitype/StillImage" />
        <dc:title />
      </cc:Work>
    </rdf:RDF>
  </metadata>
  <defs
     id="defs8" />
  <path
     d="M12.1,18.55L12,18.65L11.89,18.55C7.14,14.24 4,11.39 4,8.5C4,6.5 5.5,5 7.5,5C9.04,5 10.54,6 11.07,7.36H12.93C13.46,6 14.96,5 16.5,5C18.5,5 20,6.5 20,8.5C20,11.39 16.86,14.24 12.1,18.55M16.5,3C14.76,3 13.09,3.81 12,5.08C10.91,3.81 9.24,3 7.5,3C4.42,3 2,5.41 2,8.5C2,12.27 5.4,15.36 10.55,20.03L12,21.35L13.45,20.03C18.6,15.36 22,12.27 22,8.5C22,5.41 19.58,3 16.5,3Z"
     id="path2" />
  <path
     style="fill:none;stroke:#000000;stroke-width:1.5;stroke-linecap:round;stroke-linejoin:miter;stroke-miterlimit:4;stroke-dasharray:none;stroke-opacity:1"
     d="M 1.6271186,2.5423729 20.135593,19.016949"
     id="path4527" />
</svg>
